!!!OTL: Gongchandang geilewo yengling de sang
!!!ARE: Asia, China,ÿQinghai Osten
!! I, 240
!!!SCT: C2083
!!!YEM: Copyright 1995, estate of Helmut Schaffrath.
**kern
*ICvox
*Ivox
*M2/4
*k[b-]
*F:
{8a
=1
8cc
8cc
8dd
16dd
16ff
=2
8ff
16dd
16cc
8a
8a
=3
4cc
8dd
16dd
16ff
=4
16dd
16cc
[4.dd
=5
2dd]}
=6
{8cc
8cc
8dd
16dd
16ff
=7
8cc
8a
4a}
=8
{8cc
8cc
8dd
16dd
16ff
=9
8ff
16dd
16cc
8a
16a
16g
=10
8f
16f
16d
8cc
16cc
16a
=11
16g
16f
4g
8a
=12
8f
16f
16d
8cc
16cc
16a
=13
8g
4.g}
=14
{8cc
8cc
8dd
16dd
16ff
=15
8ff
16dd
16cc
8a
16a
16g
=16
8f
16f
16d
8cc
16cc
16a
=17
8g
4.g
=18
16g
16a
16g
16f
8d
16d
16f
=19
16d
16c
4d}
==
!!!AGN: Shange, Jingjinghualing
!! Hui Han
!!!ONB: ESAC (Essen Associative Code) Database: SENGANSU
!!!AMT: simple duple
!!!AIN: vox
!!!EED: Helmut Schaffrath
!!!EEV: 1.0
*-
!!!ONB: Tied note syntax fixed by Craig Sapp, 2004/05/03/
